contributed-vectors/daywise.svg

<svg xmlns="http://www.w3.org/2000/svg" width="192" height="192" fill="none"><g clip-path="url(#a)"><path fill="#9ABEFF" d="M184 96c0 28-13.1 53-33.5 69.1-2.5 2-5.1 3.8-7.8 5.5-4.3 2.7-8.9 5.1-13.7 7-5.3 2.2-10.9 3.8-16.7 4.9-5.3 1-10.7 1.5-16.3 1.5-5.6 0-11-.5-16.3-1.5-10.2-1.9-19.8-5.6-28.4-10.6-16.4-9.7-29.4-24.5-36.8-42.3-2.1-5.1-3.8-10.5-4.9-16C8.6 107.8 8 102 8 96 8 47.4 47.4 8 96 8s88 39.4 88 88Z"/><path fill="#9ABEFF" d="M150.5 165.1c-2.5 2-5.1 3.8-7.8 5.5-8.1-.1-33.3-1.8-55.9-8.8-8.7-2.7-15.7-6.2-30.8-14.3-16.6-8.9-31.8-14.4-41.4-18-2.1-5.1-3.8-10.5-4.9-16 44.8 10.1 68.2 21.2 81.4 30 1.3.8 3.3 2.6 6.8 4.3 21.4 10.9 39.2 15.8 52.6 17.3Z"/><path fill="#B3CEFF" d="M150.5 165.1c-2.5 2-5.1 3.8-7.8 5.5-8.1-.1-33.3-1.8-55.9-8.8-8.7-2.7-15.7-6.2-30.8-14.3-16.6-8.9-31.8-14.4-41.4-18-2.1-5.1-3.8-10.5-4.9-16 44.8 10.1 68.2 21.2 81.4 30 1.3.8 3.3 2.6 6.8 4.3 21.4 10.9 39.2 15.8 52.6 17.3Z"/><path fill="#fff" d="M110.2 167.2v.1c-7.6-1.3-15.7-3.1-23.4-5.5-3.5-1.1-6.7-2.3-10.3-3.9-2.1-.9-4.4-2-6.9-3.3-1.7-.9-3.6-1.8-5.7-2.9-.9-.5-1.9-1-2.9-1.5-.9-.5-1.8-1-2.8-1.5-.7-.4-1.4-.8-2.2-1.2l-3.9-2.1v-1.2c-.7-20.2 4.9-40.3 10.6-47.3-2.7-2-4.5-5.3-4.5-9.1 0-2.6.9-5.1 2.4-7h-.3c-2.3 0-4.2-1.9-4.2-4.2 0-2.3 1.9-4.2 4.2-4.2 2.3 0 4.2 1.9 4.2 4.2 0 .4 0 .7-.1 1.1 1.4-.7 2.9-1.1 4.6-1.1 5.9 0 10.8 5 10.8 11.2 0 5.3-3.5 9.7-8.2 10.9 1.2 2.9-2.1 6.9-.6 12.8 1.3 5.4 4.7 5.7 7.2 12.4 1.7 4.7-.1 4.7 1.6 9.6.7 2.2 2.8 8.3 8.4 12.7.2.1.3.3.5.4 3.7.2 6.9 5 9 9.2 6.4.8 13.2 7 12.5 11.4ZM125.4 62.7c7.787 0 14.1-6.313 14.1-14.1s-6.313-14.1-14.1-14.1-14.1 6.313-14.1 14.1 6.313 14.1 14.1 14.1Z"/></g><defs><clipPath id="a"><path fill="#fff" d="M0 0h192v192H0z"/></clipPath></defs></svg>

<svg width="192" height="192" viewBox="0 0 192 192" fill="none" xmlns="http://www.w3.org/2000/svg">
<g clip-path="url(#clip0)">
<path d="M184 96C184 124 170.9 149 150.5 165.1C148 167.1 145.4 168.9 142.7 170.6C138.4 173.3 133.8 175.7 129 177.6C123.7 179.8 118.1 181.4 112.3 182.5C107 183.5 101.6 184 96 184C90.4 184 85 183.5 79.7 182.5C69.5 180.6 59.9 176.9 51.3 171.9C34.9 162.2 21.9 147.4 14.5 129.6C12.4 124.5 10.7 119.1 9.6 113.6C8.6 107.8 8 102 8 96C8 47.4 47.4 8 96 8C144.6 8 184 47.4 184 96Z" fill="#9ABEFF"/>
<path d="M150.5 165.1C148 167.1 145.4 168.9 142.7 170.6C134.6 170.5 109.4 168.8 86.8 161.8C78.1 159.1 71.1 155.6 56 147.5C39.4 138.6 24.2 133.1 14.6 129.5C12.5 124.4 10.8 119 9.69995 113.5C54.5 123.6 77.9 134.7 91.1 143.5C92.4 144.3 94.4 146.1 97.9 147.8C119.3 158.7 137.1 163.6 150.5 165.1Z" fill="#9ABEFF"/>
<path d="M150.5 165.1C148 167.1 145.4 168.9 142.7 170.6C134.6 170.5 109.4 168.8 86.8 161.8C78.1 159.1 71.1 155.6 56 147.5C39.4 138.6 24.2 133.1 14.6 129.5C12.5 124.4 10.8 119 9.69995 113.5C54.5 123.6 77.9 134.7 91.1 143.5C92.4 144.3 94.4 146.1 97.9 147.8C119.3 158.7 137.1 163.6 150.5 165.1Z" fill="#B3CEFF"/>
<path d="M110.2 167.2V167.3C102.6 166 94.5 164.2 86.8 161.8C83.3 160.7 80.1 159.5 76.5 157.9C74.4 157 72.1 155.9 69.6 154.6C67.9 153.7 66 152.8 63.9 151.7C63 151.2 62 150.7 61 150.2C60.1 149.7 59.2 149.2 58.2 148.7C57.5 148.3 56.8 147.9 56 147.5C54.7 146.8 53.4 146.1 52.1 145.4C52.1 145 52.1 144.6 52.1 144.2C51.4 124 57 103.9 62.7 96.9C60 94.9 58.2 91.6 58.2 87.8C58.2 85.2 59.1 82.7 60.6 80.8C60.5 80.8 60.4 80.8 60.3 80.8C58 80.8 56.1 78.9 56.1 76.6C56.1 74.3 58 72.4 60.3 72.4C62.6 72.4 64.5 74.3 64.5 76.6C64.5 77 64.5 77.3 64.4 77.7C65.8 77 67.3 76.6 69 76.6C74.9 76.6 79.8 81.6 79.8 87.8C79.8 93.1 76.3 97.5 71.6 98.7C72.8 101.6 69.5 105.6 71 111.5C72.3 116.9 75.7 117.2 78.2 123.9C79.9 128.6 78.1 128.6 79.8 133.5C80.5 135.7 82.6 141.8 88.2 146.2C88.4 146.3 88.5 146.5 88.7 146.6C92.4 146.8 95.6 151.6 97.7 155.8C104.1 156.6 110.9 162.8 110.2 167.2Z" fill="white"/>
<path d="M125.4 62.7C133.187 62.7 139.5 56.3872 139.5 48.6C139.5 40.8128 133.187 34.5 125.4 34.5C117.613 34.5 111.3 40.8128 111.3 48.6C111.3 56.3872 117.613 62.7 125.4 62.7Z" fill="white"/>
</g>
<defs>
<clipPath id="clip0">
<rect width="192" height="192" fill="white"/>
</clipPath>
</defs>
</svg>
